flaticon/household/juicer.svg

<svg xmlns="http://www.w3.org/2000/svg" width="32" height="32" viewBox="0 0 24 24">
    <path d="M 23.585938 12.207031 L 18.199219 12.207031 C 17.996094 5.855469 13.214844 1.863281 12 1.863281 C 10.785156 1.863281 6.003906 5.855469 5.800781 12.207031 L 0.414062 12.207031 C 0.183594 12.207031 0 12.390625 0 12.621094 L 0 14.277344 C 0 14.503906 0.183594 14.691406 0.414062 14.691406 L 0.828125 14.691406 L 0.828125 17.953125 C 0.828125 20.261719 2.707031 22.136719 5.015625 22.136719 L 18.984375 22.136719 C 21.292969 22.136719 23.171875 20.261719 23.171875 17.953125 L 23.171875 14.691406 L 23.585938 14.691406 C 23.816406 14.691406 24 14.503906 24 14.277344 L 24 12.621094 C 24 12.390625 23.816406 12.207031 23.585938 12.207031 Z M 17.371094 12.207031 L 15.339844 12.207031 C 14.824219 7.757812 14.214844 5.269531 13.597656 3.824219 C 15.148438 5.289062 17.238281 8.140625 17.371094 12.207031 Z M 12 2.800781 C 12.589844 3.339844 13.664062 4.996094 14.507812 12.207031 L 9.492188 12.207031 C 10.335938 4.992188 11.410156 3.339844 12 2.800781 Z M 10.40625 3.8125 C 9.785156 5.257812 9.175781 7.746094 8.65625 12.207031 L 6.628906 12.207031 C 6.761719 8.125 8.859375 5.269531 10.40625 3.8125 Z M 22.34375 17.953125 C 22.34375 19.804688 20.835938 21.308594 18.984375 21.308594 L 5.015625 21.308594 C 3.164062 21.308594 1.65625 19.804688 1.65625 17.953125 L 1.65625 14.691406 L 22.34375 14.691406 Z M 23.171875 13.863281 L 0.828125 13.863281 L 0.828125 13.035156 L 23.171875 13.035156 Z M 23.171875 13.863281"/>
</svg>

<svg xmlns="http://www.w3.org/2000/svg" width="32" height="32" viewBox="0 0 24 24">
    <path d="M23.586 12.207h-5.387C17.996 5.855 13.215 1.863 12 1.863c-1.215 0-5.996 3.992-6.2 10.344H.415a.412.412 0 0 0-.414.414v1.656c0 .227.184.414.414.414h.414v3.262a4.19 4.19 0 0 0 4.188 4.184h13.968a4.19 4.19 0 0 0 4.188-4.184v-3.262h.414c.23 0 .414-.187.414-.414v-1.656a.412.412 0 0 0-.414-.414zm-6.215 0H15.34c-.516-4.45-1.125-6.937-1.742-8.383 1.55 1.465 3.64 4.317 3.773 8.383zM12 2.801c.59.539 1.664 2.195 2.508 9.406H9.492C10.336 4.992 11.41 3.34 12 2.801zm-1.594 1.011c-.62 1.446-1.23 3.934-1.75 8.395H6.63c.133-4.082 2.23-6.937 3.777-8.395zm11.938 14.141a3.36 3.36 0 0 1-3.36 3.356H5.016a3.36 3.36 0 0 1-3.36-3.356v-3.262h20.688zm.828-4.09H.828v-.828h22.344zm0 0"/>
</svg>
